app/assets/images/payment_icons/paypal.svg

<svg xmlns="http://www.w3.org/2000/svg" width="38" height="24" viewBox="0 0 38 24" fill="none" aria-labelledby="pi-paypal" role="img"><title id="pi-paypal">PayPal</title><rect width="38" height="24" fill="white"/><mask id="pi-paypal-mask0_4071_511" style="mask-type:luminance" maskUnits="userSpaceOnUse" x="11" y="4" width="16" height="16"><path d="M11 4H27V20H11V4Z" fill="white"/></mask><g mask="url(#pi-paypal-mask0_4071_511)"><path d="M27 4H11V20H27V4Z" fill="white"/><path d="M15.978 19.958L16.265 18.139L15.627 18.125H12.582L14.698 4.707C14.7045 4.66611 14.7254 4.62889 14.7569 4.60211C14.7885 4.57532 14.8286 4.56073 14.87 4.561H20.004C21.709 4.561 22.884 4.915 23.499 5.615C23.787 5.944 23.97 6.287 24.059 6.665C24.152 7.061 24.154 7.535 24.063 8.112L24.056 8.154V8.524L24.344 8.687C24.564 8.798 24.762 8.949 24.927 9.132C25.173 9.412 25.333 9.769 25.4 10.192C25.47 10.627 25.447 11.145 25.333 11.732C25.201 12.406 24.989 12.993 24.703 13.474C24.449 13.904 24.109 14.277 23.703 14.568C23.323 14.838 22.87 15.044 22.358 15.175C21.8078 15.3108 21.2427 15.3763 20.676 15.37H20.276C19.991 15.37 19.713 15.473 19.496 15.657C19.2782 15.8434 19.1336 16.101 19.088 16.384L19.058 16.548L18.553 19.752L18.53 19.87C18.524 19.907 18.513 19.926 18.498 19.939C18.483 19.9511 18.4643 19.9578 18.445 19.958H15.978Z" fill="#253B80"/><path d="M24.615 8.197C24.599 8.29763 24.5814 8.39798 24.562 8.498C23.885 11.975 21.569 13.175 18.61 13.175H17.104C16.9293 13.1749 16.7603 13.2374 16.6277 13.3511C16.495 13.4648 16.4075 13.6223 16.381 13.795L15.61 18.686L15.392 20.073C15.3835 20.1279 15.387 20.184 15.4021 20.2374C15.4173 20.2909 15.4438 20.3404 15.4799 20.3827C15.516 20.4249 15.5608 20.4589 15.6112 20.4822C15.6616 20.5056 15.7164 20.5178 15.772 20.518H18.443C18.76 20.518 19.029 20.288 19.078 19.976L19.105 19.841L19.608 16.648L19.64 16.473C19.6638 16.3217 19.7409 16.1839 19.8573 16.0843C19.9737 15.9848 20.1218 15.93 20.275 15.93H20.675C23.263 15.93 25.289 14.88 25.881 11.838C26.129 10.568 26.001 9.508 25.346 8.761C25.1386 8.53017 24.8909 8.33905 24.615 8.197Z" fill="#179BD7"/><path d="M23.908 7.913C23.692 7.85052 23.4722 7.80176 23.25 7.767C22.81 7.699 22.366 7.667 21.922 7.67H17.898C17.7449 7.66987 17.5968 7.72456 17.4805 7.82415C17.3642 7.92375 17.2874 8.06169 17.264 8.213L16.407 13.635L16.383 13.793C16.4095 13.6203 16.497 13.4628 16.6297 13.3491C16.7623 13.2354 16.9313 13.1729 17.106 13.173H18.612C21.571 13.173 23.887 11.973 24.564 8.497C24.584 8.394 24.601 8.294 24.617 8.196C24.3913 8.07688 24.1537 7.98202 23.908 7.913Z" fill="#222D65"/><path d="M17.262 8.214C17.2855 8.06261 17.3624 7.92466 17.479 7.82521C17.5955 7.72575 17.7438 7.67139 17.897 7.672H21.921C22.398 7.672 22.843 7.702 23.249 7.769C23.523 7.812 23.795 7.876 24.059 7.962C24.259 8.028 24.445 8.106 24.616 8.197C24.817 6.912 24.614 6.037 23.92 5.245C23.154 4.373 21.772 4 20.003 4H14.87C14.6951 4.00002 14.526 4.06249 14.3931 4.17616C14.2601 4.28983 14.1722 4.44723 14.145 4.62L12.005 18.175C11.995 18.238 11.9988 18.3024 12.0162 18.3638C12.0335 18.4252 12.0639 18.4821 12.1054 18.5306C12.1468 18.579 12.1983 18.618 12.2562 18.6446C12.3142 18.6713 12.3772 18.6851 12.441 18.685H15.611L16.406 13.636L17.262 8.214Z" fill="#253B80"/></g></svg>

<svg xmlns="http://www.w3.org/2000/svg" width="38" height="24" fill="none" aria-labelledby="pi-paypal" role="img" viewBox="0 0 38 24"><title id="pi-paypal">PayPal</title><path fill="#fff" d="M0 0h38v24H0z"/><mask id="pi-paypal-mask0_4071_511" width="16" height="16" x="11" y="4" maskUnits="userSpaceOnUse" style="mask-type:luminance"><path fill="#fff" d="M11 4h16v16H11z"/></mask><g mask="url(#pi-paypal-mask0_4071_511)"><path fill="#fff" d="M27 4H11v16h16z"/><path fill="#253B80" d="m15.978 19.958.287-1.819-.638-.014h-3.045l2.116-13.418a.17.17 0 0 1 .172-.146h5.134c1.705 0 2.88.354 3.495 1.054.288.329.471.672.56 1.05.093.396.095.87.004 1.447l-.007.042v.37l.288.163c.22.111.418.262.583.445.246.28.406.637.473 1.06.07.435.047.953-.067 1.54-.132.674-.344 1.261-.63 1.742-.254.43-.594.803-1 1.094a4 4 0 0 1-1.345.607 6.7 6.7 0 0 1-1.682.195h-.4a1.2 1.2 0 0 0-.78.287 1.2 1.2 0 0 0-.408.727l-.03.164-.505 3.204-.023.118c-.006.037-.017.056-.032.069a.1.1 0 0 1-.053.019z"/><path fill="#179BD7" d="M24.615 8.197q-.024.15-.053.301c-.677 3.477-2.993 4.677-5.952 4.677h-1.506a.73.73 0 0 0-.723.62l-.771 4.891-.218 1.387a.387.387 0 0 0 .38.445h2.671c.317 0 .586-.23.635-.542l.027-.135.503-3.193.032-.175a.64.64 0 0 1 .635-.543h.4c2.588 0 4.614-1.05 5.206-4.092.248-1.27.12-2.33-.535-3.077a2.6 2.6 0 0 0-.731-.564"/><path fill="#222D65" d="M23.908 7.913a5 5 0 0 0-.658-.146q-.661-.102-1.328-.097h-4.024a.64.64 0 0 0-.634.543l-.857 5.422-.024.158a.73.73 0 0 1 .723-.62h1.506c2.959 0 5.275-1.2 5.952-4.676q.03-.154.053-.301a3.6 3.6 0 0 0-.709-.283"/><path fill="#253B80" d="M17.262 8.214a.64.64 0 0 1 .635-.542h4.024q.717-.002 1.328.097.413.064.81.193.3.099.557.235c.201-1.285-.002-2.16-.696-2.952C23.154 4.373 21.772 4 20.003 4H14.87a.734.734 0 0 0-.725.62l-2.14 13.555a.44.44 0 0 0 .436.51h3.17l.795-5.049z"/></g></svg>
